X:1
T: 60th Summer School
C:Muriel A Johnstone
R:Strathspey
%Q:128
K:G
M:4/4
L:1/16
|:d2|G4 G3F G4 (3GAB|c3B A3G FA3 Ad3|G4 G3F G4 (3GAB|c3B Ae3 d4 D3F|
G4 G3F G4 (3GAB|c3B A3G EG3 G3E|D3E GB3 c3B ce3|dD3 B3A G6d2|
g3f g3e dB3 B3d|c3B c3A Bd3 d3d|g3f g3e dB3 (3Bcd|c3B AG3 d6d2|
g3f g3e dG3 (3GAB|c3B A3G EG3 G3E|D3E GB3 c3B ce3|dD3 B3A G6:|
